X: 02108
T: The QUACKER BOX!
C: Bob McQuillen July'75
B: Bob's Note Book 1&2 #108
%R: reel
Z: 2019 John Chambers <jc:trillian.mit.edu>
M: C
L: 1/8
K: D
fe \
| defd A2d2 | edBd A2fe | dcde f2d2 | gfed egfe |
| defd A2d2 | edBd A2de | fefg afeg | f2d2 d2 :|
|: ag \
| f2a2 f2a2 | bagb a2ag | f2a2 f2a2 | gfed e2ag |
| f2a2 f2a2 | bagb abag | f2f2 efge | f2d2 d2 :|
%%begintext align
%% That's what Sarah Bauhan
%% named my new music room,
%% and this was the 1st tune out of it.
%%endtext

%%sep 1 1 500

%%sep 1 1 500

